icon-themes/sukapura_svg/cmd/32/moveslideup.svg

<svg viewBox="0 0 32 32" xmlns="http://www.w3.org/2000/svg" xmlns:xlink="http://www.w3.org/1999/xlink"><linearGradient id="a" gradientTransform="matrix(0 1 -1 0 33.001954 4)" gradientUnits="userSpaceOnUse" x1="31.383966" x2="20.734177" y1="1.012658" y2="22.886076"><stop offset="0" stop-color="#d7d7d7"/><stop offset=".29999998" stop-color="#f7f7f7"/><stop offset="1" stop-color="#fff"/></linearGradient><filter id="b" color-interpolation-filters="sRGB" height="1.094553" width="1.097492" x="-.048746" y="-.047277"><feGaussianBlur stdDeviation=".36559322"/></filter><path d="m3 18.940678h22v2.559322h-22z" filter="url(#b)" opacity=".15" stroke-width="1.015418"/><path d="m7 26.940678h22v2.559322h-22z" filter="url(#b)" opacity=".15" stroke-width="1.015418"/><g transform="translate(-5.001947 -9)"><path d="m30.001953 13.998-22.0000059.002v9.002l-.0019471 5.996 2.998053-.002.002.002h6 6l.002-.002h6.998l.001947-5.996z" fill="url(#a)"/><path d="m31 13.998c0-.554-.446-1.00005-1-1l-22.000006.002c-.5539999.00005-1 .446-1 1v10.494187l-.00195 4.505766c-.0002394.554.456533.892483 1 1l1.3847719-.002h4.7246091 5.78125 4.724609 5.384766c.543467-.107517.99976-.446 1-1l.00195-4.505766zm-1 0v.002 9 2.511719l-.0019 3.486234h-4.404297-2.59375-.002v.002h-6-6v-.002h-.0019-2.5937502l-.4043029.002.0019001-3.486234v-11.511766-.001953z" fill="#98989d"/><g fill="#98989d" transform="translate(1.001953 7)"><path d="m9.998047 13h1v1h-1z"/><path d="m9.998047 16h1v1h-1z"/><path d="m9.998047 19h1v1h-1z"/><path d="m11.998047 13h14.001953v1h-14.001953z"/><path d="m11.998047 19h9.001953v1h-9.001953z"/><path d="m11.998047 16h10.001953v1h-10.001953z"/></g><path d="m10.998047 16h16.001953v2h-16.001953z" fill="#c2c2c4"/></g><g transform="translate(-1.001947 -.998)"><path d="m30.001953 13.998-22.0000059.002-.0019471 7.999953v6.998047l2.998053-.002.002.002h6 6l.002-.002h6.998v-6.998047z" fill="url(#a)"/><path d="m31 13.998c.000114-.554-.446-1.00005-1-1l-22.000006.002c-.5539999.00005-1 .446-1 1l-.00195 9.49214v5.507813c0 .554.456533.892483 1 1l1.3847719-.002h4.7246091 5.78125 4.724609 5.384766c.543467-.107517 1-.446 1-1v-5.507813zm-1 0v.002l-.0019 7.997953v2.511719 4.488281h-4.404297-2.59375-.002v.002h-6-6v-.002h-.0019-2.5937502l-.4043029.002v-4.488281l.0019001-10.509719v-.001953z" fill="#98989d"/><g fill="#98989d" transform="translate(1.001953 7)"><path d="m9.998047 13h1v1h-1z"/><path d="m9.998047 16h1v1h-1z"/><path d="m9.998047 19h1v1h-1z"/><path d="m11.998047 13h14.001953v1h-14.001953z"/><path d="m11.998047 19h9.001953v1h-9.001953z"/><path d="m11.998047 16h10.001953v1h-10.001953z"/></g><path d="m10.998047 16h16.001953v2h-16.001953z" fill="#c2c2c4"/></g><path d="m8 17a1.0001 1.0001 0 0 1 -.8320312-1.554688l6.9628902-10.445312h1.867188 1.742187l6.123047 10.496094a1.0001 1.0001 0 0 1 -.863281 1.503906zm6.132812-12.001953.666016-.998047h2.357422l.583984.998047h-1.74414z" fill="#fff" fill-opacity=".784314"/><path d="m23 16-7-12-8 12z" fill="#4b4b4f"/></svg>

<?xml version="1.0" encoding="UTF-8" standalone="no"?>
<svg
   xmlns:dc="http://purl.org/dc/elements/1.1/"
   xmlns:cc="http://creativecommons.org/ns#"
   xmlns:rdf="http://www.w3.org/1999/02/22-rdf-syntax-ns#"
   xmlns:svg="http://www.w3.org/2000/svg"
   xmlns="http://www.w3.org/2000/svg"
   xmlns:xlink="http://www.w3.org/1999/xlink"
   xmlns:sodipodi="http://sodipodi.sourceforge.net/DTD/sodipodi-0.dtd"
   xmlns:inkscape="http://www.inkscape.org/namespaces/inkscape"
   viewBox="0 0 32 32"
   version="1.1"
   id="svg63"
   sodipodi:docname="moveslideup.svg"
   inkscape:version="0.92.4 (unknown)">
  <metadata
     id="metadata69">
    <rdf:RDF>
      <cc:Work
         rdf:about="">
        <dc:format>image/svg+xml</dc:format>
        <dc:type
           rdf:resource="http://purl.org/dc/dcmitype/StillImage" />
        <dc:title></dc:title>
      </cc:Work>
    </rdf:RDF>
  </metadata>
  <defs
     id="defs67">
    <linearGradient
       inkscape:collect="always"
       xlink:href="#a"
       id="linearGradient880"
       gradientUnits="userSpaceOnUse"
       gradientTransform="rotate(90,14.500977,18.500977)"
       x1="31.383966"
       y1="1.012658"
       x2="20.734177"
       y2="22.886076" />
    <linearGradient
       inkscape:collect="always"
       xlink:href="#a"
       id="linearGradient882"
       gradientUnits="userSpaceOnUse"
       gradientTransform="rotate(90,14.500977,18.500977)"
       x1="31.383966"
       y1="1.012658"
       x2="20.734177"
       y2="22.886076" />
  </defs>
  <sodipodi:namedview
     pagecolor="#ffffff"
     bordercolor="#666666"
     borderopacity="1"
     objecttolerance="10"
     gridtolerance="10"
     guidetolerance="10"
     inkscape:pageopacity="0"
     inkscape:pageshadow="2"
     inkscape:window-width="1360"
     inkscape:window-height="710"
     id="namedview65"
     showgrid="true"
     inkscape:zoom="10.429825"
     inkscape:cx="10.264875"
     inkscape:cy="2.8949216"
     inkscape:window-x="0"
     inkscape:window-y="28"
     inkscape:window-maximized="1"
     inkscape:current-layer="svg63">
    <inkscape:grid
       type="xygrid"
       id="grid876" />
  </sodipodi:namedview>
  <linearGradient
     id="a"
     gradientTransform="matrix(0 1 -1 0 33.001954 4)"
     gradientUnits="userSpaceOnUse"
     x1="31.383966"
     x2="20.734177"
     y1="1.012658"
     y2="22.886076">
    <stop
       offset="0"
       stop-color="#d7d7d7"
       id="stop2" />
    <stop
       offset=".29999998"
       stop-color="#f7f7f7"
       id="stop4" />
    <stop
       offset="1"
       stop-color="#fff"
       id="stop6" />
  </linearGradient>
  <g
     transform="translate(-5.0019471,-9)"
     id="g29">
    <path
       d="M 30.001953,13.998 8.0019471,14 v 9.002 L 8,28.998 l 2.998053,-0.002 0.002,0.002 h 6 6 l 0.002,-0.002 h 6.998 L 30.002,23 Z"
       id="path9"
       style="fill:url(#linearGradient882)"
       inkscape:connector-curvature="0" />
    <path
       d="m 31,13.998 c 0,-0.554 -0.446,-1.00005 -1,-1 L 7.999994,13 c -0.5539999,5e-5 -1,0.446 -1,1 v 10.494187 l -0.00195,4.505766 c -2.394e-4,0.554 0.456533,0.892483 1,1 l 1.3847719,-0.002 h 4.7246091 5.78125 4.724609 5.384766 c 0.543467,-0.107517 0.99976,-0.446 1,-1 L 31,24.492187 Z m -1,0 V 14 v 9 2.511719 l -0.0019,3.486234 h -4.404297 -2.59375 -0.002 v 0.002 h -6 -6 v -0.002 h -0.0019 -2.5937502 l -0.4043029,0.002 L 8,25.513719 V 14.001953 14 Z"
       id="path11"
       inkscape:connector-curvature="0"
       style="fill:#98989d" />
    <g
       transform="translate(1.001953,7)"
       id="g25"
       style="fill:#98989d">
      <path
         d="m 9.998047,13 h 1 v 1 h -1 z"
         id="path13"
         inkscape:connector-curvature="0" />
      <path
         d="m 9.998047,16 h 1 v 1 h -1 z"
         id="path15"
         inkscape:connector-curvature="0" />
      <path
         d="m 9.998047,19 h 1 v 1 h -1 z"
         id="path17"
         inkscape:connector-curvature="0" />
      <path
         d="M 11.998047,13 H 26 v 1 H 11.998047 Z"
         id="path19"
         inkscape:connector-curvature="0" />
      <path
         d="M 11.998047,19 H 21 v 1 h -9.001953 z"
         id="path21"
         inkscape:connector-curvature="0" />
      <path
         d="M 11.998047,16 H 22 v 1 H 11.998047 Z"
         id="path23"
         inkscape:connector-curvature="0" />
    </g>
    <path
       d="M 10.998047,16 H 27 v 2 H 10.998047 Z"
       id="path27"
       inkscape:connector-curvature="0"
       style="fill:#c2c2c4" />
  </g>
  <g
     transform="translate(-1.0019471,-0.998)"
     id="g51">
    <path
       d="M 30.001953,13.998 8.0019471,14 8,21.999953 V 28.998 l 2.998053,-0.002 0.002,0.002 h 6 6 l 0.002,-0.002 h 6.998 v -6.998047 z"
       id="path31"
       style="fill:url(#linearGradient880)"
       inkscape:connector-curvature="0" />
    <path
       d="m 31,13.998 c 1.14e-4,-0.554 -0.446,-1.00005 -1,-1 L 7.999994,13 c -0.5539999,5e-5 -1,0.446 -1,1 l -0.00195,9.49214 v 5.507813 c 0,0.554 0.456533,0.892483 1,1 l 1.3847719,-0.002 h 4.7246091 5.78125 4.724609 5.384766 c 0.543467,-0.107517 1,-0.446 1,-1 V 23.49014 Z m -1,0 V 14 l -0.0019,7.997953 v 2.511719 4.488281 h -4.404297 -2.59375 -0.002 v 0.002 h -6 -6 v -0.002 h -0.0019 -2.5937502 l -0.4043029,0.002 V 24.511672 L 8,14.001953 V 14 Z"
       id="path33"
       inkscape:connector-curvature="0"
       style="fill:#98989d" />
    <g
       transform="translate(1.001953,7)"
       id="g47"
       style="fill:#98989d">
      <path
         d="m 9.998047,13 h 1 v 1 h -1 z"
         id="path35"
         inkscape:connector-curvature="0" />
      <path
         d="m 9.998047,16 h 1 v 1 h -1 z"
         id="path37"
         inkscape:connector-curvature="0" />
      <path
         d="m 9.998047,19 h 1 v 1 h -1 z"
         id="path39"
         inkscape:connector-curvature="0" />
      <path
         d="M 11.998047,13 H 26 v 1 H 11.998047 Z"
         id="path41"
         inkscape:connector-curvature="0" />
      <path
         d="M 11.998047,19 H 21 v 1 h -9.001953 z"
         id="path43"
         inkscape:connector-curvature="0" />
      <path
         d="M 11.998047,16 H 22 v 1 H 11.998047 Z"
         id="path45"
         inkscape:connector-curvature="0" />
    </g>
    <path
       d="M 10.998047,16 H 27 v 2 H 10.998047 Z"
       id="path49"
       inkscape:connector-curvature="0"
       style="fill:#c2c2c4" />
  </g>
  <path
     style="fill:#ffffff;fill-opacity:0.78431373"
     d="M 8,17 A 1.0001,1.0001 0 0 1 7.1679688,15.445312 L 14.130859,5 h 1.867188 1.742187 l 6.123047,10.496094 A 1.0001,1.0001 0 0 1 23,17 Z M 14.132812,4.998047 14.798828,4 h 2.357422 l 0.583984,0.998047 h -1.74414 z"
     id="path1027"
     inkscape:connector-curvature="0" />
  <path
     style="fill:#4b4b4f"
     inkscape:connector-curvature="0"
     id="path32"
     d="M 23,16 16,4 8,16 Z" />
</svg>
